X:24
T:Steyrer Tanz in C, nr. 7
C:traditionell
R:Steirer
A:Hallstatt, Salzkammergut
B:Corpus Musicae Popularis Austriacae (COMPA), 5.Band: J.M.Schmalnauer " Tanz Musik", Verlag Boehlau, Wien 1996
S:manuscript des Johann Michael Schmalnauer um 1820
N:im der quelle in C
Z:abc transcription Simon Wascher
F:http://simonwascher.info/TradArchiv/
M:3/4
L:1/8
K:C
V:1
%violino 1mo
(Fd)(Ec)(DB) | c2 EGcE | G,DBDG,D | c2 EGcE |\
(Fd)(Ec)(DB) | c2 EGcE | G,DBDG,D | "n G" c4 :|
V:2
%violino 2do
(Df)(De)(Dd) | Te2 Gcec | GBdGBd | e2 GceG |\
(Df)(De)(Dd) | Te2 Gcec | GBdGBd | e4 :|
